X: 146
T:Rose of Antrim
M:2/2
L:1/8
R:Reel
Z:Rob Greenway
K:D
de|fd~d2 edBd|Ad~d2 Ad~d2|fd~d2 edBd|Adgf efde|!
fd~d2 edBd|Ad~d2 Addg|fa~a2 afeg|fedB A2:|!
|:(3Bcd|~e3f edBd|e2df efgf|~e3f edBd|Addc defd|!
~e3f edBd|e2df efge|fa~a2 afeg|fedB A2:||!
<end>
<start>
